X: 13
T: Out On The Ocean
R: jig
M: 6/8
L: 1/8
K: Gmaj
|:D|DBB BAG|BdG A3|GED G2A|Bdd GED|
DBB BAG|BdG A3|GED G2A| BGF G2E|
D3 BAG|BdG A3|GED G2A|Bdd GED|
DBB DBB|BdG A3|GED G2A|BGG GBd||
|:e3 edB|e3 edB|ded dBA|ded dBA|
G2A B2d|e3 dBA|GED G2A|BGF GBd|
e3 edB|e3 edB|ded dB/c/d|gfe dBA|
G2A B2d|.e.e.e dBA|GED G2A|BGF G2E||


Tune 108	Setting 108

